X:1
T:LAUTERBACH.
T:LAUTERBACH.
T:CHARACTERISTIC  TWO-STEP.
T:By ERNEST  A.  ITTNER.
T:Copyright 1906 by Victor Kremer Co.  English Copyright.
T:Copyright 1906 by Victor Kremer Co.  English Copyright.
T:Copyright 1906 by Victor Kremer Co.  English Copyright.
T:Copyright 1906 by Victor Kremer Co.  English Copyright.
C:By ERNEST  A.  ITTNER.
Z:Copyright 1906 by Victor Kremer Co.  English Copyright.
%%score { ( 1 2 ) | ( 3 4 ) }
L:1/8
Q:1/4=90
M:2/4
K:C
V:1 treble nm="Piano" snm="Pno."
V:2 treble 
V:3 bass 
V:4 bass 
V:1
!f! e/ge/ c/B/c/^c/ | d>B [B,FG]2 | [Bdg]/[Bdg][Bdg]/ [ceg][^c=eg] | [Bdfg] z G^F |: %4
!mf! =F/e/d/B/ G/e/d/B/ | Fe/[FBd]/- [FBd]G/F/ | E/d/c/A/ G/d/c/G/ | Ed/[Ec]/- [Ec]!>![Ec] | %8
 !>![FB]/D/E/F/ G/A/B/c/ | d/^c/d/[Bfg]/- [Bfg]!>![FB] | c/E/F/G/ A/B/c/d/ | %11
 e/^d/e/[Geg]/- [Geg]G/^F/ | =F/e/d/B/ G/e/d/B/ | Fe/[FBd]/- [FBd]G/F/ | E/d/c/A/ G/d/c/G/ | %15
 Ed/[Ec]/- [Ec]G/^G/ | A/^G/A/B/ ^c/A/B/c/ |!f! d/^c/d/[A-ea-]/ [A_ea]A/_A/ | %18
 G/^F/G/e/ e/G/=F/d/ |1 [Ec][EB] [CEA]G/^F/ :|2 [EGc]z[EGc] z |: %21
!ff!{GAB} !>!c[cea]/[ceg]/- [ceg]/e/c/A/ | ^A/Bd/ =A z |{GAB} !>!c[cea]/[ceg]/- [ceg]/e/c/A/ | %24
 ^A/Bd/ =A z |!p! G/A/B/c/- c/B/c | A/B/^c/d/- d/c/d |"_cresc" [GB]/^c/^d/e/- e/d/e | %28
!f! g/^f/g/G/- G2 |!ff!{GAB} !>!c[cea]/[ceg]/- [ceg]/e/c/A/ | ^A/Bd/ =A z | %31
{GAB} !>!c[cea]/[ceg]/- [ceg]/e/c/A/ | ^A/Bd/ =A z | G/A/B/c/- c/B/c | A/B/^c/d/- d/c/d | %35
 [GB]/^c/^d/e/- e/^f/g |1 f/c/d/c/- c z :|2 f/c/d/c/- cG/^F/ ||!mf! =F/e/d/B/ G/e/d/B/ | %39
 Fe/[FBd]/- [FBd]G/F/ | E/d/c/A/ G/d/c/G/ | Ed/[Ec]/- [Ec]!>![Ec] | !>![FB]/D/E/F/ G/A/B/c/ | %43
 d/^c/d/[Bfg]/- [Bfg]!>![FB] | c/E/F/G/ A/B/c/d/ | e/^d/e/[Geg]/- [Geg]G/^F/ | =F/e/d/B/ G/e/d/B/ | %47
 Fe/[FBd]/- [FBd]G/F/ | E/d/c/A/ G/d/c/G/ | Ed/[Ec]/- [Ec]G/^G/ | A/^G/A/B/ ^c/A/B/c/ | %51
!f! d/^c/d/[A-ea-]/ [A_ea]A/_A/ | G/^F/G/e/ e/G/=F/d/ | [EGc]z[EGc] ||[K:F][M:2/4]!mf! A |: %55
 c=B/c/- c/B/c/A/ | F!<(!E/F/- F/E/F!<)! | G^F/G/- G/F/G/E/ | z{/=B} c{/B}c{/B}c | %59
 d^c/d/- d/c/d/=c/ | BA/B/- B/A/G |!<(! c/de/ dc!<)! | [E,B,C]/[F,B,D][G,B,E]/ [F,B,D][E,B,C] | %63
!mf! c=B/c/- c/B/c/A/ | F!<(!E/F/- F/E/F!<)! | G^F/G/- G/F/G/E/ | z{/=B} c{/B}c{/B}c | %67
 d^c/d/- d/c/d/=c/ | BA/B/- B/A/G ||1 F[Cc]!>![_D_d][Cc] | !>![=D=d][Cc]!>![Ee][Cc] :|2 %71
 FC/D/- D/C/A,/G,/ | F,2 !>![FAcf]2 || [^cea]/[cea][cea]/ [cea][cea] | [dfb]/[dfb][dfb]/ [^cea]2 | %75
!<(! (a/g/d') (a/g/d') | a{/^g'}a' a2!<)! | [egc']/[egc'][egc']/ [egc'][egc'] | %78
 [f_a_d']/[fad'][fad']/ [egc']2 |!<(!!8va(! (c'/b/f') (c'/b/f') | [gc'=e']c'' c'2!<)!!8va)! || %81
!ff! [cfc']/[cfc'][cfc']/ [cfc'][Afa] |!<(! [Fcf]/[Fcf][Fcf]/ [Ee][Ff]!<)! | %83
 z/ [GBg][GBg]/ [GBg][EBe] | [EBc]3 [Bb] | z/ [dbd'][dbd']/ [dbd'][cec'] | %86
 [Beb]/[Beb][Beb]/ [Aea][Geg] |!<(! [cc']/[dd'][ee']/ [dd'][cc']!<)! | %88
!f! [EBc]/[FBd][GBe]/ [FBd][EBc] | [cfc']/[cfc'][cfc']/ [cfc'][Afa] | %90
!<(! [Fcf]/[Fcf][Fcf]/ [Ee][Ff]!<)! | z/ [GBg][GBg]/ [GBg][EBe] | [EBc]3 [Bb] | %93
 z/ [dbd'][dbd']/ [dbd'][cec'] | [Beb]/[Beb][Beb]/ [Aea][Geg] | !>![FAcf] =B,/C/ D/C/A,/G,/ | %96
 F,!>![CEGc] !>![FAcf]2 |] %97
V:2
 c2 x2 | F2 x2 | G/GG/ G[G^A] | G x3 |: x4 | x4 | x4 | x4 | x4 | x4 | x4 | x4 | x4 | x4 | x4 | x4 | %16
 x4 | x4 | x4 |1 x4 :|2 x4 |: x4 | x4 | x4 | x4 | E3 [EG] | F3 [FA] | x4 | x4 | x4 | x4 | x4 | x4 | %33
 E3 [EG] | F3 [FA] | x4 |1 GF E x :|2 GF E z || x4 | x4 | x4 | x4 | x4 | x4 | x4 | x4 | x4 | x4 | %48
 x4 | x4 | x4 | x4 | x4 | x3 ||[K:F][M:2/4] x |: F4 | C4 | E2- E>E | C4 | B4 | E4 | F4 | x4 | F4 | %64
 C4 | E2- E>E | C4 | B4 | E4 ||1 x4 | x4 :|2 x4 | x4 || x4 | x4 | x4 | x4 | x4 | x4 |!8va(! x4 | %80
 x4!8va)! || x4 | x4 | x4 | x4 | x4 | x4 | x4 | x4 | x4 | x4 | x4 | x4 | x4 | x4 | x4 | x4 |] %97
V:3
 [CEG]2 [CEG][CEG] | [G,B,]2 !>![G,,G,]/!>![^F,,^F,]!>![G,,G,]/ |"^L.H." x4 | x2 z2 |: %4
 D,[F,G,B,] G,,[F,G,B,] | D,[F,G,B,] G,,[F,G,B,] | C,[G,C] E,[G,C] | C,[E,G,C] G,,[E,G,C] | %8
 D,[F,G,B,] G,,[F,G,B,] | D,[F,G,B,] G,,[F,G,B,] | C,[E,G,C] G,,[E,G,C] | C,[E,G,C] [E,G,C] z | %12
 D,[F,G,B,] G,,[F,G,B,] | D,[F,G,B,] G,,[F,G,B,] | C,[G,C] E,[G,C] | C,[E,G,C] _B,,[E,G,C] | %16
 A,,"^cresc"[G,A,^C] G,,[E,A,C] | F,,[F,A,D] !>![^F,A,C_E]2 | G,,[G,CE] G,,[F,G,B,] |1 %19
 !>![C,C]!>![B,,B,] !>![A,,A,] z :|2 [C,C]z[C,G,C] z |:{G,,A,,B,,} !>!C,[G,CE] [E,,E,][_E,,_E,] | %22
 [D,,D,][F,G,B,] G,,[F,G,B,] |{G,,A,,B,,} !>!C,[G,CE] [E,,E,][_E,,_E,] | %24
 [D,,D,][F,G,B,] G,,[F,G,B,] | C,[G,C] E,[G,C] | F,[A,D] D,[A,D] | E,[G,B,E] E,[G,B,E] | %28
 D,[=F,G,B,] !>![G,,G,]/!>![^F,,^F,]/!>![G,,G,] |{G,,A,,B,,} !>!C,[G,CE] [E,,E,][_E,,_E,] | %30
 [D,,D,][F,G,B,] G,,[F,G,B,] |{G,,A,,B,,} !>!C,[G,CE] [E,,E,][_E,,_E,] | %32
 [D,,D,][F,G,B,] G,,[F,G,B,] | C,[G,C] E,[G,C] | F,[A,D] D,[A,D] | E,[G,B,E] E,[G,B,E] |1 %36
 [G,C][G,B,] [C,G,C] z :|2 [G,C][G,B,] [C,G,C] z || D,[F,G,B,] G,,[F,G,B,] | %39
 D,[F,G,B,] G,,[F,G,B,] | C,[G,C] E,[G,C] | C,[E,G,C] G,,[E,G,C] | D,[F,G,B,] G,,[F,G,B,] | %43
 D,[F,G,B,] G,,[F,G,B,] | C,[E,G,C] G,,[E,G,C] | C,[E,G,C] [E,G,C] z | D,[F,G,B,] G,,[F,G,B,] | %47
 D,[F,G,B,] G,,[F,G,B,] | C,[G,C] E,[G,C] | C,[E,G,C] _B,,[E,G,C] | %50
 A,,"^cresc"[G,A,^C] G,,[E,A,C] | F,,[F,A,D] !>![^F,A,C_E]2 | G,,[G,CE] G,,[F,G,B,] | %53
 [C,G,C]z[C,G,C] ||[K:F][M:2/4] z |: F,,[C,F,A,] C,,[C,F,A,] | [A,,A,]2 [_A,,_A,]2 | %57
 G,,[E,B,C] C,,[E,B,C] | [G,,G,][C,,C,][D,,D,][E,,E,] | G,,[E,B,C] C,,[E,B,C] | %60
 G,,[E,B,C] C,,[E,B,C] | [A,,A,]2 [_A,,_A,]2 | G,,2 C,,2 | F,,[C,F,A,] C,,[C,F,A,] | %64
 [A,,A,]2 [_A,,_A,]2 | G,,[E,B,C] C,,[E,B,C] | [G,,G,][C,,C,][D,,D,][E,,E,] | %67
 G,,[E,B,C] C,,[E,B,C] | G,,[E,B,C] C,,[E,B,C] ||1 [F,,F,]C,!>!_D,C, | !>!=D,C,!>!E,C, :|2 %71
 [F,,F,]C,/D,/- D,/C,/A,,/G,,/ | F,,2 !>![F,,F,]2 ||[K:treble] A/AA/ AA | ^G/GG/ A2 | d2 e2 | %76
 [A^ce]4 | c/cc/ cc | =B/BB/ c2 | [B_df]4 | [c=e]4 ||[K:bass] F,,[C,F,A,] C,,[C,F,A,] | %82
 A,,[C,F,A,] [A,,A,][_A,,_A,] | G,,[E,B,C] C,,[E,B,C] | [C,,C,]/[D,,D,][E,,E,]/ [D,,D,][C,,C,] | %85
 G,,[E,B,C] C,,[E,B,C] | G,,[E,B,C] C,,[E,B,C] | !>![A,,A,]2 !>![_A,,_A,]2 | %88
 !>![G,,G,]2 !>![C,,C,]2 | F,,[C,F,A,] C,,[C,F,A,] | A,,[C,F,A,] [A,,A,][_A,,_A,] | %91
 G,,[E,B,C] C,,[E,B,C] | [C,,C,]/[D,,D,][E,,E,]/ [D,,D,][C,,C,] | G,,[E,B,C] C,,[E,B,C] | %94
 G,,[E,B,C] C,,[E,B,C] | !>![F,,F,] z z2 | z !>![C,,C,] !>!F,,2 |] %97
V:4
 x4 | x4 | x4 | x4 |: x4 | x4 | x4 | x4 | x4 | x4 | x4 | x4 | x4 | x4 | x4 | x4 | x4 | x4 | x4 |1 %19
 x4 :|2 x4 |: x4 | x4 | x4 | x4 | x4 | x4 | x4 | x4 | x4 | x4 | x4 | x4 | x4 | x4 | x4 |1 x4 :|2 %37
 x4 || x4 | x4 | x4 | x4 | x4 | x4 | x4 | x4 | x4 | x4 | x4 | x4 | x4 | x4 | x4 | x3 || %54
[K:F][M:2/4] x |: x4 | x4 | x4 | x4 | x4 | x4 | x4 | x4 | x4 | x4 | x4 | x4 | x4 | x4 ||1 x4 | %70
 x4 :|2 x4 | x4 ||[K:treble] x4 | x4 | B4 | x4 | x4 | x4 | x4 | x4 ||[K:bass] x4 | x4 | x4 | x4 | %85
 x4 | x4 | x4 | x4 | x4 | x4 | x4 | x4 | x4 | x4 | x4 | x4 |] %97

